!!!OTL: WACH AUF MEINS HERZENS SCHOENE
!!!ARE: Europa, Mitteleuropa, Deutschland
!!!SCT: Z0286
!!!YEM: Copyright 1995, estate of Helmut Schaffrath.
**kern
*ICvox
*Ivox
*M2/4
*k[b-]
*F:
{8f
=1
8cc
8cc
8cc
8cc
=2
4ff
8cc}
{8cc
=3
8dd
8cc
8b-
8cc
=4
4a
8r}
{8f
=5
8cc
8cc
8cc
8cc
=6
4ff
8cc}
{8cc
=7
8dd
8cc
8b-
8cc
=8
4a
8r}
{8cc
=9
8ff
16ee
16ee
8dd
8cc
=10
4dd
8cc}
{8cc
=11
8dd
8dd
8ee
8ee
=12
8ff
8ff
8gg}
{8cc
=13
8ff
8dd
8cc
8b-
=14
4g
8f}
==
!!!AGN: Lyrisches Lied, Romanze
!!!ONB: ESAC (Essen Associative Code) Database: ZUCCAL
!!!AMT: simple duple
!!!AIN: vox
!!!EED: Helmut Schaffrath
!!!EEV: 1.0
*-
